X:116
T:A Lady walking in her garden
T:not ugly
Z:Jack Campin - http://www.campin.me.uk
S:Blaikie MS (NLS MS.1578) p34, Blaikie #110
M:3/4
L:1/8
V:1 midi program 1 74
V:2 midi program 1 46 bass middle = d transpose -24
Q:1/4=100
K:G
[V:1] D2|GB c2 BA|GB AF DD|GB    c2 Bc|dB A2 d2|
[V:2] z2|g2 f2 d2|g2 d2 f2|g2    a2 g2|g2 d2 z2|
%
[V:1]    cA G2 AB|cB AF DD|E/F/G A2 dB|cA G2|]
[V:2]    d2 g2 G2|d2 d2 d2|cB    c2 BG|d2 g2|]
W:Transcription (c) Jack Campin 2009, no mirroring or republication without permission

